numeric-1-box-multiple.svg

<svg fill="currentColor" viewBox="0 0 24 24"><path d="M3 5v16h16v2H3a2 2 0 0 1-2-2V5zm18-4a2 2 0 0 1 2 2v14a2 2 0 0 1-2 2H7a2 2 0 0 1-2-2V3a2 2 0 0 1 2-2zm-7 14h2V5h-4v2h2z"/></svg>

<svg  viewBox="0 0 24 24" fill="currentColor"><path  d="M3,5V21H19V23H3A2,2 0 0,1 1,21V5H3M21,1A2,2 0 0,1 23,3V17A2,2 0 0,1 21,19H7A2,2 0 0,1 5,17V3A2,2 0 0,1 7,1H21M14,15H16V5H12V7H14V15Z"/></svg>
